svgs/sharp-light/chess-clock-flip.svg

<svg xmlns="http://www.w3.org/2000/svg" viewBox="0 0 640 512"><!--! Font Awesome Pro 6.6.0 by @fontawesome - https://fontawesome.com License - https://fontawesome.com/license (Commercial License) Copyright 2024 Fonticons, Inc. --><path d="M400 32l-16 0 0 32 16 0 48 0 0 64L32 128 0 128l0 32L0 448l0 32 32 0 576 0 32 0 0-32 0-288 0-32-32 0-128 0 0-64 48 0 16 0 0-32-16 0-64 0-64 0zM96 64l0 32 16 0 128 0 16 0 0-32-16 0L112 64 96 64zm512 96l0 288L32 448l0-288 576 0zM464 224a80 80 0 1 1 0 160 80 80 0 1 1 0-160zm0 192a112 112 0 1 0 0-224 112 112 0 1 0 0 224zM119.4 247.4A80 80 0 1 1 232.6 360.6 80 80 0 1 1 119.4 247.4zM255.2 383.2A112 112 0 1 0 96.8 224.8 112 112 0 1 0 255.2 383.2zM480 240l-32 0 0 16 0 48 0 16 32 0 0-16 0-48 0-16zM221.3 281.4l11.3-11.3-22.6-22.6-11.3 11.3-33.9 33.9L153.4 304 176 326.6l11.3-11.3 33.9-33.9z"/></svg>

<svg xmlns="http://www.w3.org/2000/svg" viewBox="0 0 640 512"><!--! Font Awesome Pro 6.4.0 by @fontawesome - https://fontawesome.com License - https://fontawesome.com/license (Commercial License) Copyright 2023 Fonticons, Inc. --><path d="M400 32H384V64h16 48v64H32 0v32V448v32H32 608h32V448 160 128H608 480V64h48 16V32H528 464 400zM96 64V96h16H240h16V64H240 112 96zm512 96V448H32V160H608zM464 224a80 80 0 1 1 0 160 80 80 0 1 1 0-160zm0 192a112 112 0 1 0 0-224 112 112 0 1 0 0 224zM119.4 247.4A80 80 0 1 1 232.6 360.6 80 80 0 1 1 119.4 247.4zM255.2 383.2A112 112 0 1 0 96.8 224.8 112 112 0 1 0 255.2 383.2zM480 240H448v16 48 16h32V304 256 240zM221.3 281.4l11.3-11.3-22.6-22.6-11.3 11.3-33.9 33.9L153.4 304 176 326.6l11.3-11.3 33.9-33.9z"/></svg>
